!!!OTL: GESTERN ABEND GING ICH AUS, GING WOHL IN DEN WALD HINAUS
!!!ARE: Europa, Mitteleuropa, Deutschland
!!!SCT: Z0124
!!!YEM: Copyright 1995, estate of Helmut Schaffrath.
**kern
*ICvox
*Ivox
*M2/4
*k[f#]
*G:
{8d
8g
8g
8g
=1
8f#
8a
4a
=2
8b
8b
8cc
8a
=3
8a
8g
4g}
=4
{8dd
8b
8b
8g
=5
8g
8e
4e
=6
8cc
8b
8a
8g
=7
8f#
8e
4d}
=8
{8d
8g
8g
8g
=9
8f#
8a
4a
=10
8b
8b
8cc
8a
=11
8a
8g
4g}
==
!!!AGN: Erzaehlung, lustige Romanze
!!!ONB: ESAC (Essen Associative Code) Database: ZUCCAL
!!!AMT: simple duple
!!!AIN: vox
!!!EED: Helmut Schaffrath
!!!EEV: 1.0
*-
